docs/img/icons/logo.svg

<svg width="157" height="55" viewBox="0 0 157 55" fill="none" xmlns="http://www.w3.org/2000/svg">
<path fill-rule="evenodd" clip-rule="evenodd" d="M154.119 54.9361L2.99955 54.8845L3.00043 51.8845L154.12 51.9361L154.119 54.9361Z" fill="white"/>
<path fill-rule="evenodd" clip-rule="evenodd" d="M153.5 54.9367V7.3833H156.5V54.9367H153.5Z" fill="white"/>
<path fill-rule="evenodd" clip-rule="evenodd" d="M154.12 10.3794H93.7863V7.37939H154.12V10.3794Z" fill="white"/>
<path fill-rule="evenodd" clip-rule="evenodd" d="M63.4843 10.3794H2.99994V7.37939H63.4843V10.3794Z" fill="white"/>
<path d="M30.1717 35.0149C30.1717 35.5761 30.0158 36.0793 29.7041 36.5241C29.3925 36.9582 28.9712 37.3025 28.4401 37.5567C27.9207 37.8002 27.3492 37.9221 26.7259 37.9221H20.9252V26.6427H26.8471C27.4242 26.6427 27.9207 26.7856 28.3362 27.0716C28.7634 27.3469 29.0865 27.7071 29.3059 28.1519C29.5367 28.586 29.6522 29.0415 29.6522 29.5181C29.6522 30.0794 29.4964 30.5984 29.1847 31.075C28.873 31.5516 28.4401 31.9063 27.886 32.1394C28.5903 32.33 29.1444 32.6848 29.5483 33.2038C29.9639 33.7228 30.1717 34.3265 30.1717 35.0149ZM28.9596 34.8242C28.9596 34.4429 28.8673 34.0934 28.6825 33.7757C28.4977 33.4473 28.244 33.1827 27.9207 32.9814C27.609 32.7801 27.251 32.6795 26.8471 32.6795H22.1373V36.953H26.7259C27.1415 36.953 27.5167 36.8525 27.8514 36.6512C28.1861 36.4499 28.4517 36.1905 28.6479 35.8727C28.8557 35.5443 28.9596 35.1948 28.9596 34.8242ZM22.1373 27.6117V31.774H26.3623C26.7662 31.774 27.1241 31.6787 27.4358 31.4881C27.7475 31.2867 27.9956 31.0273 28.1804 30.7096C28.3652 30.3919 28.4574 30.0531 28.4574 29.6929C28.4574 29.3116 28.3709 28.9673 28.1977 28.6603C28.0245 28.3425 27.7878 28.0883 27.4878 27.8977C27.1877 27.7071 26.8471 27.6117 26.4662 27.6117H22.1373ZM36.3595 26.6427H37.3814L42.4894 37.9221H41.2081L39.6148 34.3953H34.0912L32.5155 37.9221H31.2168L36.3595 26.6427ZM39.338 33.5215L36.8619 27.9454L34.3509 33.5215H39.338ZM45.8099 28.692V37.9221H44.5978V26.6427H45.6021L53.6711 36.0475V26.6585H54.8832V37.9221H53.7577L45.8099 28.692ZM58.389 26.6427L62.4062 32.7113L66.458 26.6427H67.7739L63.0122 33.7281V37.9221H61.8001V33.6963L57.0557 26.6427H58.389ZM72.3844 26.6427H73.406L78.5141 37.9221H77.2327L75.6397 34.3953H70.1161L68.5404 37.9221H67.2417L72.3844 26.6427ZM75.3627 33.5215L72.8866 27.9454L70.3758 33.5215H75.3627ZM87.6396 28.7556C87.4664 28.5756 87.2643 28.4167 87.0335 28.279C86.8027 28.1308 86.543 28.0037 86.2543 27.8977C85.9656 27.7917 85.654 27.7071 85.3193 27.6435C84.996 27.58 84.6497 27.5482 84.2804 27.5482C83.2068 27.5482 82.416 27.7388 81.9082 28.1201C81.4117 28.4907 81.1636 28.9991 81.1636 29.6452C81.1636 30.09 81.2791 30.4395 81.5099 30.6937C81.7523 30.9479 82.1276 31.1544 82.6354 31.3133C83.1432 31.4722 83.7899 31.6362 84.5747 31.8058C85.4521 31.9753 86.2081 32.1764 86.8431 32.4095C87.478 32.6426 87.9686 32.9603 88.3149 33.3627C88.6612 33.7546 88.8343 34.2893 88.8343 34.9672C88.8343 35.4862 88.7247 35.9363 88.5053 36.3176C88.2859 36.6988 87.9802 37.0166 87.5876 37.2708C87.195 37.5249 86.7275 37.7156 86.1851 37.8427C85.6426 37.9591 85.0479 38.0174 84.4016 38.0174C83.7666 38.0174 83.1549 37.9591 82.5661 37.8427C81.9891 37.7156 81.4407 37.5356 80.9212 37.3025C80.4017 37.059 79.9169 36.7517 79.4667 36.3811L80.0727 35.4756C80.2921 35.6873 80.5519 35.8886 80.8519 36.0793C81.1636 36.2592 81.5042 36.4235 81.8735 36.5717C82.2545 36.7199 82.6584 36.8366 83.0856 36.9212C83.5242 36.9955 83.9744 37.0325 84.4362 37.0325C85.4175 37.0325 86.1794 36.8684 86.7218 36.54C87.2759 36.2116 87.553 35.7245 87.553 35.0784C87.553 34.6125 87.4145 34.2416 87.1374 33.9664C86.8604 33.6804 86.4448 33.4473 85.8907 33.2673C85.3366 33.0874 84.6556 32.9126 83.8475 32.7431C82.9934 32.5631 82.2718 32.3618 81.6831 32.1394C81.0943 31.917 80.6498 31.6258 80.3498 31.2656C80.0611 30.895 79.9169 30.4078 79.9169 29.8041C79.9169 29.1051 80.1017 28.5173 80.471 28.0407C80.8519 27.5534 81.3714 27.188 82.0294 26.9445C82.6874 26.6903 83.4436 26.5632 84.2977 26.5632C84.8401 26.5632 85.3423 26.6161 85.8041 26.7221C86.2773 26.8174 86.7102 26.9604 87.1028 27.151C87.5067 27.3417 87.882 27.58 88.2283 27.8659L87.6396 28.7556ZM100.028 27.6276H95.6469V37.9221H94.4348V27.6276H90.054V26.6427H100.028V27.6276ZM106.745 38.0015C105.879 38.0015 105.094 37.8427 104.39 37.5249C103.686 37.2072 103.08 36.7783 102.572 36.2381C102.064 35.6873 101.672 35.0732 101.394 34.3953C101.117 33.707 100.979 33.0025 100.979 32.2824C100.979 31.5305 101.123 30.8156 101.412 30.1377C101.7 29.4494 102.104 28.8402 102.624 28.3107C103.155 27.7706 103.773 27.3469 104.477 27.0398C105.181 26.7221 105.943 26.5632 106.762 26.5632C107.628 26.5632 108.413 26.7273 109.117 27.0557C109.821 27.3841 110.422 27.8235 110.918 28.3743C111.426 28.9251 111.818 29.5392 112.095 30.2171C112.372 30.895 112.511 31.5886 112.511 32.2983C112.511 33.0501 112.367 33.7705 112.078 34.4588C111.79 35.1367 111.385 35.7456 110.866 36.2858C110.347 36.8153 109.735 37.2338 109.031 37.5408C108.327 37.8479 107.565 38.0015 106.745 38.0015ZM102.191 32.2824C102.191 32.8967 102.301 33.4898 102.52 34.0617C102.739 34.6229 103.051 35.1261 103.455 35.5709C103.859 36.005 104.338 36.3545 104.892 36.6194C105.458 36.8736 106.076 37.0007 106.745 37.0007C107.449 37.0007 108.078 36.8684 108.632 36.6035C109.198 36.3282 109.677 35.9681 110.069 35.5232C110.474 35.0677 110.779 34.5594 110.987 33.9981C111.195 33.4369 111.299 32.865 111.299 32.2824C111.299 31.668 111.189 31.0802 110.97 30.519C110.751 29.9577 110.433 29.4546 110.018 29.0098C109.614 28.5649 109.134 28.2154 108.58 27.9612C108.026 27.7071 107.415 27.58 106.745 27.58C106.052 27.58 105.423 27.7123 104.858 27.9771C104.303 28.242 103.825 28.6019 103.42 29.0574C103.028 29.5022 102.722 30.0054 102.503 30.5666C102.295 31.1279 102.191 31.6998 102.191 32.2824ZM115.143 37.9221V26.6427H120.337C120.868 26.6427 121.353 26.7432 121.792 26.9445C122.23 27.1458 122.611 27.4211 122.935 27.7706C123.269 28.1094 123.523 28.4907 123.696 28.9144C123.881 29.3275 123.973 29.7512 123.973 30.1854C123.973 30.7255 123.858 31.2339 123.627 31.7105C123.408 32.1871 123.09 32.5894 122.675 32.9178C122.271 33.2462 121.792 33.4632 121.238 33.5692L124.251 37.9221H122.883L119.991 33.7598H116.355V37.9221H115.143ZM116.355 32.7749H120.372C120.857 32.7749 121.278 32.653 121.636 32.4095C121.994 32.166 122.271 31.8482 122.467 31.4563C122.663 31.0539 122.761 30.6302 122.761 30.1854C122.761 29.7299 122.646 29.3116 122.415 28.9303C122.196 28.5384 121.896 28.2261 121.515 27.993C121.145 27.7495 120.73 27.6276 120.268 27.6276H116.355V32.7749ZM135.061 36.9371V37.9221H126.801V26.6427H134.905V27.6276H128.013V31.6946H134.022V32.6319H128.013V36.9371H135.061Z" fill="white"/>
<path d="M89.1046 0.19165H70.1659V17.5675H89.1046V0.19165Z"/>
<path fill-rule="evenodd" clip-rule="evenodd" d="M0.5 54.887V7.37915H3.5V54.887H0.5Z" fill="white"/>
</svg>

<svg width="157" height="55" fill="none" xmlns="http://www.w3.org/2000/svg"><path fill-rule="evenodd" clip-rule="evenodd" d="M154.119 54.936l-151.12-.051.001-3 151.12.051-.001 3z" fill="#fff"/><path fill-rule="evenodd" clip-rule="evenodd" d="M153.5 54.937V7.383h3v47.554h-3z" fill="#fff"/><path fill-rule="evenodd" clip-rule="evenodd" d="M154.12 10.38H93.786v-3h60.334v3zm-90.636 0H3v-3h60.484v3z" fill="#fff"/><path d="M30.172 35.015a2.57 2.57 0 01-.468 1.51 3.242 3.242 0 01-1.264 1.032c-.52.243-1.09.365-1.714.365h-5.8v-11.28h5.921c.577 0 1.074.144 1.49.43.426.275.75.635.969 1.08.23.434.346.89.346 1.366 0 .561-.156 1.08-.467 1.557a2.812 2.812 0 01-1.299 1.064c.704.191 1.258.546 1.662 1.065a2.81 2.81 0 01.624 1.81zm-1.212-.19a2.06 2.06 0 00-.277-1.05 2.184 2.184 0 00-.762-.794 1.935 1.935 0 00-1.074-.302h-4.71v4.274h4.589c.416 0 .79-.1 1.125-.302.335-.201.6-.46.797-.778.208-.329.312-.678.312-1.049zm-6.823-7.213v4.162h4.225c.404 0 .762-.095 1.074-.286.311-.201.56-.46.744-.778a1.99 1.99 0 00.277-1.017c0-.381-.086-.726-.26-1.033a2.05 2.05 0 00-.71-.762c-.3-.19-.64-.286-1.02-.286h-4.33zm14.222-.97h1.022l5.108 11.28h-1.28l-1.594-3.527H34.09l-1.575 3.527h-1.3l5.143-11.28zm2.979 6.88l-2.476-5.577-2.511 5.577h4.987zm6.472-4.83v9.23h-1.212v-11.28h1.004l8.07 9.405V26.66h1.211v11.263h-1.125l-7.948-9.23zm12.579-2.05l4.017 6.07 4.052-6.07h1.316l-4.762 7.086v4.194H61.8v-4.226l-4.744-7.053h1.333zm13.995 0h1.022l5.108 11.28h-1.281l-1.593-3.527h-5.524l-1.576 3.527h-1.298l5.142-11.28zm2.979 6.88l-2.476-5.577-2.511 5.577h4.987zm12.277-4.766a2.89 2.89 0 00-.606-.477 3.968 3.968 0 00-.78-.381c-.288-.106-.6-.19-.935-.255a5.388 5.388 0 00-1.039-.095c-1.073 0-1.864.19-2.372.572-.496.37-.744.88-.744 1.525 0 .445.115.794.346 1.049.242.254.618.46 1.125.62.508.158 1.155.322 1.94.492.877.17 1.633.37 2.268.604.635.233 1.126.55 1.472.953.346.392.52.926.52 1.604 0 .52-.11.97-.33 1.35a2.78 2.78 0 01-.917.954c-.393.254-.86.445-1.403.572a8.51 8.51 0 01-1.783.174 9.444 9.444 0 01-1.836-.174 8.443 8.443 0 01-1.645-.54 6.868 6.868 0 01-1.454-.922l.606-.905c.22.211.479.413.779.603.312.18.652.344 1.022.493.38.148.784.265 1.212.35.438.074.888.11 1.35.11.981 0 1.743-.164 2.286-.492.554-.328.831-.816.831-1.462 0-.466-.138-.836-.416-1.112-.277-.286-.692-.519-1.246-.699a20.125 20.125 0 00-2.044-.524c-.854-.18-1.575-.381-2.164-.604-.589-.222-1.033-.513-1.333-.873-.289-.371-.433-.858-.433-1.462 0-.699.185-1.287.554-1.763.38-.488.9-.853 1.558-1.096.658-.255 1.415-.382 2.269-.382a6.73 6.73 0 011.506.16 5.34 5.34 0 011.299.428c.404.19.779.429 1.125.715l-.588.89zm12.388-1.128h-4.381v10.294h-1.212V27.628h-4.381v-.985h9.974v.985zM106.745 38c-.866 0-1.651-.158-2.355-.476a5.663 5.663 0 01-1.818-1.287 6.13 6.13 0 01-1.178-1.843 5.613 5.613 0 01-.415-2.113c0-.751.144-1.466.433-2.144a5.752 5.752 0 011.212-1.827 5.858 5.858 0 011.853-1.271 5.491 5.491 0 012.285-.477c.866 0 1.651.164 2.355.493a5.55 5.55 0 011.801 1.318c.508.551.9 1.165 1.177 1.843a5.526 5.526 0 01-.017 4.242 6.015 6.015 0 01-1.212 1.827 5.772 5.772 0 01-1.835 1.255 5.654 5.654 0 01-2.286.46zm-4.554-5.719a4.848 4.848 0 001.264 3.288c.404.435.883.785 1.437 1.05a4.472 4.472 0 001.853.38c.704 0 1.333-.132 1.887-.397a4.53 4.53 0 001.437-1.08 4.901 4.901 0 001.23-3.24c0-.615-.11-1.203-.329-1.764a4.7 4.7 0 00-.952-1.51 4.4 4.4 0 00-1.438-1.048 4.347 4.347 0 00-1.835-.381 4.39 4.39 0 00-1.887.397 4.492 4.492 0 00-1.438 1.08 5.03 5.03 0 00-.917 1.51 4.902 4.902 0 00-.312 1.715zm12.952 5.64v-11.28h5.194a3.45 3.45 0 012.598 1.129c.334.338.588.72.761 1.143.185.413.277.837.277 1.271 0 .54-.115 1.049-.346 1.526a3.253 3.253 0 01-.952 1.207 3.185 3.185 0 01-1.437.651l3.013 4.353h-1.368l-2.892-4.162h-3.636v4.162h-1.212zm1.212-5.147h4.017c.485 0 .906-.122 1.264-.365.358-.244.635-.562.831-.954.196-.402.294-.826.294-1.27a2.38 2.38 0 00-.346-1.256 2.524 2.524 0 00-.9-.937 2.217 2.217 0 00-1.247-.365h-3.913v5.147zm18.706 4.162v.985h-8.26v-11.28h8.104v.986h-6.892v4.067h6.009v.937h-6.009v4.305h7.048z" fill="#fff"/><path d="M89.105.192h-18.94v17.375h18.94V.192z"/><path fill-rule="evenodd" clip-rule="evenodd" d="M.5 54.887V7.379h3v47.508h-3z" fill="#fff"/></svg>
